X: 198
T: A Fisherman's Song For Attracting Seals
R: jig
M: 6/8
K: Eminor
|:B2d dBA|dBA dBA|B2d dBA|1 e2d e3:|2 e2d e2f||
|:g2f g2a|e2d e2f|g2f g2a|e2d e3|a2e g2d|
e2d BAG|B2d dBA|dBA dBA|B2d dBA|1 e2d e2f:|2 e2d e3||

